public/img/filter/drink.svg

<svg width="100" height="100" viewBox="0 0 100 100" fill="none" xmlns="http://www.w3.org/2000/svg">
<rect x="1" y="1" width="98" height="98" rx="14" stroke="#234cad" stroke-width="2"/>
<path d="M67.7631 32.0961C67.6799 32.0057 67.5788 31.9336 67.4663 31.8843C67.3538 31.835 67.2323 31.8096 67.1095 31.8097H49.8234L46.7218 17.6988C46.6786 17.5008 46.5689 17.3235 46.411 17.1964C46.2531 17.0693 46.0565 17 45.8538 17H32.8888C32.772 16.9999 32.6564 17.0229 32.5486 17.0675C32.4407 17.1122 32.3427 17.1776 32.2602 17.2602C32.1776 17.3427 32.1122 17.4407 32.0675 17.5486C32.0229 17.6564 31.9999 17.772 32 17.8888V21.9518C32 22.1875 32.0936 22.4136 32.2603 22.5803C32.427 22.7469 32.6531 22.8406 32.8888 22.8406H41.8731L43.8437 31.8097H33.4571C33.3343 31.8097 33.2129 31.8353 33.1005 31.8846C32.9881 31.9339 32.8871 32.006 32.8039 32.0962C32.7207 32.1865 32.6571 32.293 32.617 32.4091C32.577 32.5251 32.5615 32.6482 32.5714 32.7706L35.9777 74.6276C36.0406 75.3574 36.3741 76.0373 36.9126 76.5338C37.4512 77.0303 38.1558 77.3076 38.8883 77.3113H39.0468V79.0888C39.0476 79.8631 39.3555 80.6054 39.903 81.1529C40.4505 81.7004 41.1928 82.0083 41.9671 82.0091H58.6C59.3742 82.0082 60.1165 81.7002 60.6639 81.1527C61.2114 80.6053 61.5193 79.863 61.5203 79.0888V77.3113H61.6803C62.4127 77.3076 63.1174 77.0303 63.6559 76.5338C64.1945 76.0373 64.5279 75.3574 64.5909 74.6276L67.9972 32.7706C68.0069 32.6481 67.9911 32.5249 67.9509 32.4088C67.9106 32.2927 67.8466 32.1862 67.7631 32.0961V32.0961ZM43.4551 21.7618C43.4119 21.5638 43.3023 21.3865 43.1444 21.2594C42.9865 21.1323 42.7899 21.063 42.5872 21.063H33.7776V18.7776H45.1393L48.0037 31.8086H45.6634L43.4551 21.7618ZM59.7427 79.0868C59.7423 79.3897 59.6218 79.6802 59.4076 79.8944C59.1934 80.1086 58.9029 80.2291 58.6 80.2295H41.9671C41.6641 80.2292 41.3736 80.1088 41.1593 79.8945C40.9451 79.6803 40.8246 79.3898 40.8243 79.0868V77.3092H59.7427V79.0868ZM62.8179 74.4834C62.7931 74.7687 62.6628 75.0345 62.4524 75.2287C62.2419 75.423 61.9666 75.5317 61.6803 75.5337H38.8883C38.6017 75.5322 38.3259 75.4237 38.1151 75.2294C37.9044 75.0351 37.7739 74.769 37.7492 74.4834L34.421 33.5872H66.1455L62.8179 74.4834Z" fill="#234cad"/>
<path d="M40.8904 50.1759L40.3662 49.9575C40.2255 49.8987 40.072 49.877 39.9206 49.8947C39.7691 49.9124 39.6247 49.9688 39.5013 50.0584C39.3779 50.1481 39.2797 50.268 39.2161 50.4066C39.1525 50.5452 39.1257 50.6979 39.1382 50.8499L40.8116 71.4158C40.8296 71.6383 40.9308 71.8459 41.0949 71.9972C41.259 72.1486 41.4741 72.2325 41.6974 72.2324H58.8692C59.0924 72.2325 59.3075 72.1486 59.4716 71.9972C59.6358 71.8459 59.7369 71.6383 59.7549 71.4158L61.3938 51.2734C61.409 51.0864 61.3647 50.8994 61.2672 50.7392C61.1696 50.5789 61.0239 50.4536 60.8509 50.3811L60.3593 50.1779C58.7077 49.4934 56.9375 49.1411 55.1497 49.1411C53.362 49.1411 51.5917 49.4934 49.9402 50.1779C48.5056 50.7722 46.9679 51.0779 45.4151 51.0776C43.8622 51.0772 42.3247 50.7708 40.8904 50.1759V50.1759ZM50.6253 51.8164C53.4862 50.6313 56.6979 50.616 59.57 51.7737L58.05 70.4549H42.5166L41.0255 52.1272C44.157 53.1927 47.5693 53.0822 50.6253 51.8164V51.8164Z" fill="#234cad"/>
</svg>

<svg width="60" height="60" viewBox="0 0 100 100" fill="none" xmlns="http://www.w3.org/2000/svg">
  <rect x="1" y="1" width="98" height="98" rx="14" stroke="#234cad" stroke-width="2"/>
  <path d="M67.76 32.1a.89.89 0 00-.65-.29H49.82l-3.1-14.11a.89.89 0 00-.87-.7H32.9a.89.89 0 00-.89.89v4.06a.89.89 0 00.89.9h8.98l1.97 8.96H33.46a.89.89 0 00-.89.96l3.4 41.86a2.94 2.94 0 002.92 2.68h.16v1.78A2.92 2.92 0 0041.97 82H58.6a2.92 2.92 0 002.92-2.92V77.3h.16a2.94 2.94 0 002.91-2.68L68 32.77a.9.9 0 00-.23-.67zm-24.3-10.34a.89.89 0 00-.87-.7h-8.81v-2.28h11.36L48 31.8h-2.34l-2.2-10.05zM59.74 79.1a1.14 1.14 0 01-1.14 1.14H41.97a1.14 1.14 0 01-1.15-1.14V77.3h18.92v1.78zm3.08-4.6a1.15 1.15 0 01-1.14 1.04h-22.8a1.15 1.15 0 01-1.13-1.05l-3.33-40.9h31.73l-3.33 40.9z" fill="#234cad"/>
  <path d="M40.89 50.18l-.52-.22a.89.89 0 00-1.23.89l1.67 20.57a.89.89 0 00.89.81h17.17a.89.89 0 00.88-.81l1.64-20.15a.89.89 0 00-.54-.89l-.5-.2a13.6 13.6 0 00-10.41 0 11.82 11.82 0 01-9.05 0zm9.74 1.64a11.82 11.82 0 018.94-.05l-1.52 18.68H42.52l-1.5-18.32c3.14 1.06 6.55.95 9.6-.31z" fill="#234cad"/>
</svg>
